src/assets/svg_icons/spotify.svg

<?xml version="1.0" encoding="utf-8"?><!-- Uploaded to: SVG Repo, www.svgrepo.com, Generator: SVG Repo Mixer Tools -->
<svg width="800px" height="800px" viewBox="0 0 24 24" fill="none" xmlns="http://www.w3.org/2000/svg">
<path d="M2 11.9405C2 17.4167 6.52381 21.9405 12 21.9405C17.4762 21.9405 22 17.4167 22 11.9405C22 6.46429 17.4762 2 12 2C6.52381 2 2 6.46429 2 11.9405ZM15.6905 16.5833C13.369 15.1548 10.3929 14.7976 6.94048 15.5714C6.10714 15.6905 5.9881 14.5 6.70238 14.381C10.5119 13.4881 13.7262 13.9048 16.3452 15.5119C17 15.9286 16.3452 16.9405 15.6905 16.5833ZM16.7024 13.9048C14.0238 12.2381 9.91667 11.7619 6.7619 12.7143C5.75 13.0119 5.39286 11.4643 6.34524 11.2262C9.97619 10.1548 14.4405 10.6905 17.5357 12.5952C18.369 13.131 17.5357 14.4405 16.7024 13.9048ZM6.28571 9.67857C5.27381 10.0357 4.61905 8.30952 5.75 7.89286C9.2619 6.82143 15.2143 7 18.9048 9.20238C19.9167 9.73809 18.9643 11.4048 17.8929 10.8095C14.6786 8.90476 9.32143 8.72619 6.28571 9.67857Z" fill="#000000"/>
</svg>

<svg
  xmlns="http://www.w3.org/2000/svg"
  width="800"
  height="800"
  viewBox="0 0 24 24"
  fill="none"
  xmlns:v="https://vecta.io/nano"
>
  <path
    d="M2 11.941c0 5.476 4.524 10 10 10s10-4.524 10-10S17.476 2 12 2 2 6.464 2 11.941zm13.691 4.643c-2.322-1.429-5.298-1.786-8.75-1.012-.833.119-.952-1.071-.238-1.19 3.81-.893 7.024-.476 9.643 1.131.655.417 0 1.429-.655 1.071zm1.012-2.679c-2.679-1.667-6.786-2.143-9.94-1.19-1.012.298-1.369-1.25-.417-1.488 3.631-1.071 8.095-.536 11.19 1.369.833.536 0 1.845-.833 1.31zM6.286 9.679c-1.012.357-1.667-1.369-.536-1.786C9.262 6.821 15.214 7 18.905 9.202c1.012.536.059 2.202-1.012 1.607-3.214-1.905-8.571-2.083-11.607-1.131z"
    fill="#000"
  />
</svg>
